X:1
T:Drunken Gauger
Z:Erickson, Jeffrey <jeerickson:DAVIDSON.EDU> irtrad-l 2001-12-13
M:6/8
L:1/8
R:Jig
K:G
D | GAB c2A | BAG AGE | GBd g2e | dBe dBG |
c3 BdB | AGA BGE | DEG AGA | BGG G2
D | GAB c2A | BAG AGE | GBd g2e | dBe dBG |
c3 BdB | AGA BGE | DEG AGA | BGG G2 |]
%
D | GBd g2e | dBe dBG | Ace a2a | agb age |
dBd g2e | dBe dBG | c3 B3 | AGA BGE |
D/E/F/G/A/B/ c3 | BAG AGE | GBd g2e | dBe dBG |
c3 BdB | AGA BGE | DEG AGA | BGG G2 |]
D | GBd g2e | dBe dBG | Ace a2a | agb age |
dBd g2e | dBe dBG | c3 BdB | AGA BGE |
D/E/F/G/A/B/ c3 | BAG AGE | GBd g2e | dBe dBG |
c3 BdB | AGA BGE | DEG AGA | BGG G2 |]
